src/assets/img/payment-options/paymaya.svg

<svg role="img" width="38" height="24" viewBox="0 0 38 24" fill="none" xmlns="http://www.w3.org/2000/svg" aria-labelledby="pi-paymaya"><title id="pi-paymaya">Paymaya</title><g clip-path="url(#pi-paymaya)"><path opacity="0.07" d="M35 0H3C1.3 0 0 1.3 0 3V21C0 22.7 1.4 24 3 24H35C36.7 24 38 22.7 38 21V3C38 1.3 36.6 0 35 0Z" fill="black"/><path d="M35 1C36.1 1 37 1.9 37 3V21C37 22.1 36.1 23 35 23H3C1.9 23 1 22.1 1 21V3C1 1.9 1.9 1 3 1H35Z" fill="white"/><path d="M9.5052 8C8.72053 8 7.92154 8.33105 7.41155 8.85357L7.70144 9.43245L7.57887 9.53087C7.03845 8.59767 6.048 8 4.98864 8C3.33609 8 2.00027 9.44498 2.00027 11.1387V14.7883C1.99873 14.8195 2.00375 14.8506 2.01498 14.8798C2.02622 14.9089 2.04343 14.9354 2.06551 14.9574C2.0876 14.9795 2.11406 14.9967 2.14319 15.008C2.17233 15.0192 2.2035 15.0242 2.23469 15.0227H3.43183C3.46091 15.023 3.48977 15.0176 3.51669 15.0066C3.54362 14.9956 3.56807 14.9793 3.58859 14.9587C3.60911 14.9381 3.62529 14.9136 3.63617 14.8866C3.64705 14.8596 3.65241 14.8308 3.65193 14.8017V11.1118C3.65193 10.2726 4.16192 9.58366 5.0298 9.58366C5.84132 9.58366 6.4202 10.1894 6.4202 11.085V14.1145C6.4202 14.2523 6.51594 14.3481 6.6403 14.3481H7.78286C7.92065 14.3481 8.00386 14.238 8.00386 14.1145V11.085C8.00386 10.1903 8.60959 9.58366 9.422 9.58366C10.2899 9.58366 10.7712 10.2726 10.7712 11.1118V14.8026C10.7712 14.9126 10.8679 15.0236 11.0057 15.0236H12.1894C12.3415 15.0236 12.4238 14.9126 12.4238 14.7892V11.1396C12.4247 9.44587 11.1443 8 9.5052 8ZM20.2213 8.13779H19.1333C19.0089 8.13779 18.8989 8.2201 18.8989 8.35789V8.50999L19.2845 9.11572L19.1807 9.21951C18.5437 8.49747 17.6355 8 16.5995 8C14.6427 8 13.0322 9.59708 13.0322 11.5941C13.0322 13.5634 14.6427 15.1605 16.5986 15.1605C17.6427 15.1605 18.558 14.6675 19.1942 13.9445L19.2836 14.0179L18.8989 14.6514V14.7892C18.8987 14.8199 18.9045 14.8503 18.9161 14.8787C18.9277 14.9072 18.9448 14.933 18.9664 14.9548C18.988 14.9766 19.0137 14.9939 19.0421 15.0057C19.0704 15.0175 19.1008 15.0236 19.1315 15.0236H20.2204C20.2515 15.025 20.2826 15.0199 20.3116 15.0086C20.3406 14.9973 20.367 14.9801 20.389 14.958C20.411 14.9359 20.4281 14.9095 20.4393 14.8804C20.4505 14.8514 20.4555 14.8203 20.4539 14.7892V8.35789C20.4539 8.2201 20.3582 8.13779 20.2204 8.13779H20.2213ZM16.5995 13.6189C15.4148 13.6189 14.589 12.7778 14.589 11.5941C14.589 10.3961 15.4148 9.5425 16.5995 9.5425C17.7975 9.5425 18.6511 10.3961 18.6511 11.5941C18.6511 12.7787 17.7975 13.6189 16.5995 13.6189ZM35.7653 8.13779H34.6773C34.5539 8.13779 34.4438 8.2201 34.4438 8.35789V8.50999L34.8285 9.11572L34.7247 9.21951C34.0895 8.49747 33.1796 8 32.1435 8C30.1885 8 28.5771 9.59708 28.5771 11.5941C28.5771 13.5634 30.1876 15.1605 32.1435 15.1605C33.1876 15.1605 34.1029 14.6675 34.74 13.9445L34.8294 14.0179L34.4438 14.6514V14.7892C34.4436 14.8199 34.4494 14.8504 34.4611 14.8789C34.4727 14.9074 34.4899 14.9333 34.5116 14.9551C34.5333 14.9769 34.5592 14.9942 34.5876 15.006C34.6161 15.0177 34.6466 15.0237 34.6773 15.0236H35.7653C35.7965 15.0251 35.8277 15.0201 35.8568 15.0089C35.8859 14.9976 35.9124 14.9804 35.9345 14.9583C35.9566 14.9362 35.9738 14.9098 35.985 14.8806C35.9963 14.8515 36.0013 14.8203 35.9997 14.7892V8.35789C35.9997 8.2201 35.9031 8.13779 35.7653 8.13779V8.13779ZM32.1435 13.6189C30.9598 13.6189 30.133 12.7778 30.133 11.5941C30.133 10.3961 30.9598 9.5425 32.1435 9.5425C33.3424 9.5425 34.196 10.3961 34.196 11.5941C34.196 12.7787 33.3415 13.6189 32.1435 13.6189ZM27.6725 8.13779H26.5568C26.3779 8.13779 26.2813 8.23442 26.2813 8.33015V11.6907C26.2813 12.7376 25.5923 13.4668 24.533 13.4668C23.555 13.4668 22.9216 12.7376 22.9216 11.6907V8.33015C22.9216 8.23442 22.7695 8.13779 22.6737 8.13779H21.4748C21.425 8.14132 21.3781 8.16273 21.3427 8.19806C21.3074 8.2334 21.286 8.2803 21.2824 8.33015V11.6764C21.2824 13.4668 22.6872 15.0227 24.533 15.0227C25.3919 15.0227 26.1918 14.7006 26.7975 14.1682L26.8601 14.2246L26.3645 14.8992V15.1605C26.3645 15.8494 25.3311 16.2341 24.7253 16.2341H24.3406C24.2019 16.2341 24.0919 16.3317 24.0919 16.4551V17.5574C24.0919 17.6675 24.2019 17.7775 24.3397 17.7775H24.7253C26.5711 17.7775 27.9195 16.7039 27.9195 14.6791V8.33015C27.9195 8.23442 27.8238 8.13779 27.6725 8.13779V8.13779Z" fill="#00B464"/></g><defs><clipPath id="pi-paymaya"><rect width="38" height="24" fill="white"/></clipPath></defs></svg>

<svg xmlns="http://www.w3.org/2000/svg" width="38" height="24" fill="none" aria-labelledby="pi-paymaya"><g clip-path="url(#a)"><path fill="#000" d="M35 0H3C1.3 0 0 1.3 0 3v18c0 1.7 1.4 3 3 3h32c1.7 0 3-1.3 3-3V3c0-1.7-1.4-3-3-3" opacity=".07"/><path fill="#fff" d="M35 1c1.1 0 2 .9 2 2v18c0 1.1-.9 2-2 2H3c-1.1 0-2-.9-2-2V3c0-1.1.9-2 2-2z"/><path fill="#00B464" d="M9.505 8c-.784 0-1.583.331-2.093.854l.29.578-.123.099C7.039 8.598 6.048 8 4.989 8 3.336 8 2 9.445 2 11.139v3.65a.224.224 0 0 0 .235.234h1.197a.22.22 0 0 0 .22-.221v-3.69c0-.84.51-1.528 1.378-1.528.811 0 1.39.605 1.39 1.501v3.03c0 .137.096.233.22.233h1.143c.138 0 .22-.11.22-.234v-3.029c0-.895.607-1.501 1.419-1.501.868 0 1.35.689 1.35 1.528v3.69c0 .11.096.222.234.222h1.183c.152 0 .235-.111.235-.235v-3.65C12.424 9.447 11.144 8 9.505 8m10.716.138h-1.088c-.124 0-.234.082-.234.22v.152l.386.606-.104.104C18.544 8.497 17.635 8 16.599 8c-1.956 0-3.567 1.597-3.567 3.594 0 1.97 1.61 3.567 3.567 3.567 1.044 0 1.959-.493 2.595-1.216l.09.073-.385.633v.138a.233.233 0 0 0 .232.235h1.09a.224.224 0 0 0 .233-.235V8.358c0-.138-.096-.22-.234-.22zm-3.622 5.48c-1.184 0-2.01-.84-2.01-2.024 0-1.198.826-2.051 2.01-2.051 1.198 0 2.052.853 2.052 2.051 0 1.185-.854 2.025-2.052 2.025m19.166-5.48h-1.088c-.123 0-.233.082-.233.22v.152l.384.606-.103.104C34.089 8.497 33.18 8 32.144 8c-1.955 0-3.567 1.597-3.567 3.594 0 1.97 1.61 3.567 3.567 3.567 1.044 0 1.959-.493 2.596-1.216l.09.073-.386.633v.138a.23.23 0 0 0 .233.235h1.088a.225.225 0 0 0 .235-.235V8.358c0-.138-.097-.22-.235-.22m-3.621 5.48c-1.184 0-2.011-.84-2.011-2.024 0-1.198.827-2.051 2.01-2.051 1.2 0 2.053.853 2.053 2.051 0 1.185-.854 2.025-2.052 2.025m-4.471-5.48h-1.116c-.18 0-.276.096-.276.192v3.36c0 1.048-.689 1.777-1.748 1.777-.978 0-1.611-.73-1.611-1.776V8.33c0-.097-.152-.193-.248-.193h-1.2a.21.21 0 0 0-.192.192v3.346c0 1.79 1.405 3.347 3.251 3.347.859 0 1.659-.322 2.264-.855l.063.057-.495.674v.262c0 .688-1.034 1.073-1.64 1.073h-.384c-.14 0-.25.098-.25.221v1.102c0 .11.11.22.249.22h.385c1.846 0 3.194-1.073 3.194-3.098V8.33c0-.096-.095-.192-.247-.192"/></g></svg>
